!!!COM: Beethoven
!!!OTL: Acht Variationen uber "Une fievre brulante" aus "Richard Coeur de Lion" von A.E.M. Gretry
!!!Variation: Theme d
**function	**harm	**kern	**kern
*	*	*clefF4	*clefG2
*	*	*k[]	*k[]
*M3/4	*M3/4	*M3/4	*M3/4
*C:	*C:	*C:	*C:
4T	4I	4r	4g 4ee
=25	=25	=25	=25
2.T	2.I	[2.c [2.C	2g 2ee
.	.	.	4e 4cc
=26	=26	=26	=26
2T	2IVc	2c] 2C]	2a 2ff
4T	4I	4c 4C	4g 4ee
=27	=27	=27	=27
*	*	*^	*
2.T	2.I	2G	[2.C	2g 2ee
.	.	4B	.	4f 4dd
=28	=28	=28	=28	=28
2T	2I	2c	2C]	2e 2cc
*	*	*v	*v	*
4T	4Ib	4E	4g 4cc
=29	=29	=29	=29
2P	2iib	2F	4a 4dd
.	.	.	2a 2dd 2ff
4P	4ii	4D	.
=30	=30	=30	=30
*	*	*	*^
2.D	2.V	2G	2dd	2.f 2.b
.	.	4GG	4ee	.
*	*	*	*v	*v
=31	=31	=31	=31
2.T	2.I	4C	[2.e [2.g [2.cc
.	.	4GG	.
.	.	4EE	.
=32	=32	=32	=32
2T	2I	4CC	4e] 4g] 4cc]
.	.	4r	4r
*-	*-	*-	*-
